projects/skills/imgs/cats-img7.svg

<svg width="50" height="50" viewBox="0 0 50 50" fill="none" xmlns="http://www.w3.org/2000/svg">
<g clip-path="url(#clip0)">
<path d="M43.9846 40.0416H32.21V3.78814C32.21 1.69598 33.9059 0 35.9981 0H40.1964C42.2886 0 43.9845 1.69598 43.9845 3.78814V40.0416H43.9846Z" fill="url(#paint0_linear)"/>
<path d="M40.1965 0H36.2729C38.3651 0 40.0611 1.69598 40.0611 3.78814V40.0416H43.9846V3.78814C43.9846 1.69598 42.2886 0 40.1965 0V0Z" fill="url(#paint1_linear)"/>
<path d="M17.7903 40.0416H6.01562V3.78814C6.01562 1.69598 7.7117 0 9.80376 0H14.0021C16.0943 0 17.7902 1.69598 17.7902 3.78814V40.0416H17.7903Z" fill="url(#paint2_linear)"/>
<path d="M14.0022 0H10.0787C12.1708 0 13.8668 1.69598 13.8668 3.78814V6.29C9.24759 8.29137 6.01562 12.8902 6.01562 18.245V40.0416H13.8668H17.7903V5.28039V3.78814C17.7903 1.69598 16.0944 0 14.0022 0V0Z" fill="url(#paint3_linear)"/>
<path d="M24.9999 9.82342C22.73 9.82342 20.8833 7.97666 20.8833 5.70675C20.8833 3.43685 22.7299 1.59009 24.9999 1.59009C27.2699 1.59009 29.1165 3.43675 29.1165 5.70666C29.1165 7.97656 27.2698 9.82342 24.9999 9.82342ZM24.9999 4.04107C24.0814 4.04107 23.3343 4.78823 23.3343 5.70666C23.3343 6.62509 24.0814 7.37234 24.9999 7.37234C25.9183 7.37234 26.6656 6.62509 26.6656 5.70666C26.6656 4.78823 25.9183 4.04107 24.9999 4.04107Z" fill="url(#paint4_linear)"/>
<path d="M41.0945 48.6934H8.90527V18.245C8.90527 11.0517 14.7365 5.22046 21.9298 5.22046H28.07C35.2632 5.22046 41.0945 11.0517 41.0945 18.245V48.6934Z" fill="url(#paint5_linear)"/>
<path d="M28.07 5.22046H24.1465C31.3397 5.22046 37.171 11.0517 37.171 18.245V48.6935H41.0945V18.2451C41.0945 11.0517 35.2632 5.22046 28.07 5.22046Z" fill="url(#paint6_linear)"/>
<path d="M12.7451 47.442H2.38843C1.06931 47.442 0 46.3726 0 45.0535V37.5804C0 34.9365 2.14333 32.7932 4.78716 32.7932H12.7451V47.442Z" fill="url(#paint7_linear)"/>
<path d="M12.7452 32.7932H8.99407C6.98181 32.7932 5.13965 33.9701 4.34054 35.8168C3.84063 36.9722 3.56348 38.2465 3.56348 39.5857V46.0364C3.56348 46.5315 3.65505 47.005 3.82083 47.4419H12.7452V32.7932Z" fill="url(#paint8_linear)"/>
<path d="M37.2549 47.442H47.6115C48.9307 47.442 50 46.3726 50 45.0535V37.5804C50 34.9365 47.8567 32.7932 45.2128 32.7932H37.2549V47.442Z" fill="url(#paint9_linear)"/>
<path d="M45.2128 32.7932H42.7607C45.4047 32.7932 47.5479 34.9365 47.5479 37.5804V45.0536C47.5479 46.3727 46.4786 47.442 45.1595 47.442H47.6115C48.9306 47.442 50 46.3727 50 45.0536V37.5804C50 34.9365 47.8566 32.7932 45.2128 32.7932Z" fill="url(#paint10_linear)"/>
<path d="M40.0211 50.0001H9.97915C7.79014 50.0001 6.01562 48.2256 6.01562 46.0366V39.5857C6.01562 34.3377 10.27 30.0833 15.5181 30.0833H34.4821C39.7301 30.0833 43.9845 34.3377 43.9845 39.5857V46.0366C43.9846 48.2256 42.2101 50.0001 40.0211 50.0001Z" fill="url(#paint11_linear)"/>
<path d="M34.4821 30.0833H30.5586C35.8067 30.0833 40.0611 34.3377 40.0611 39.5858V46.0366C40.0611 48.2256 38.2866 50.0001 36.0976 50.0001H40.0211C42.2102 50.0001 43.9847 48.2256 43.9847 46.0366V39.5858C43.9847 34.3377 39.7303 30.0833 34.4821 30.0833Z" fill="url(#paint12_linear)"/>
<path d="M35.3429 37.8516H14.6566C13.9798 37.8516 13.4312 37.303 13.4312 36.6261C13.4312 35.9493 13.9798 35.4006 14.6566 35.4006H35.3429C36.0198 35.4006 36.5684 35.9493 36.5684 36.6261C36.5684 37.303 36.0198 37.8516 35.3429 37.8516Z" fill="url(#paint13_linear)"/>
<path d="M31.0999 23.8375H18.9003C18.2234 23.8375 17.6748 23.2888 17.6748 22.612C17.6748 21.9351 18.2234 21.3865 18.9003 21.3865H31.0998C31.7767 21.3865 32.3253 21.9351 32.3253 22.612C32.3254 23.2887 31.7767 23.8375 31.0999 23.8375Z" fill="url(#paint14_linear)"/>
<path d="M13.0052 41.5554C13.5337 42.0838 14.2622 42.3396 15.02 42.2519C15.4532 42.2018 15.8672 42.0322 16.2119 41.765C17.394 40.8489 17.4734 39.134 16.4499 38.1107L15.5313 37.1921C15.0875 36.7482 14.3678 36.7482 13.924 37.1921L13.0053 38.1107C12.0555 39.0604 12.0555 40.6057 13.0052 41.5554Z" fill="url(#paint15_linear)"/>
<path d="M16.2116 41.7652C16.0758 41.8704 15.929 41.9599 15.7747 42.0335C15.8895 41.7301 15.9528 41.4015 15.9528 41.0578C15.9528 39.534 14.7175 38.2987 13.1937 38.2987C13.0656 38.2987 12.9398 38.3081 12.8164 38.3251C12.8748 38.2512 12.9367 38.1791 13.0049 38.1109L13.9236 37.1922C14.3674 36.7484 15.0871 36.7484 15.5309 37.1922L16.4495 38.1109C17.4731 39.1342 17.3937 40.849 16.2116 41.7652Z" fill="url(#paint16_linear)"/>
<path d="M11.677 16.4168C11.2872 16.3007 10.8784 16.523 10.7628 16.9123C10.4626 17.9227 10.3105 18.9684 10.3105 20.0207C10.3105 20.4269 10.6397 20.756 11.0458 20.756C11.452 20.756 11.7811 20.4269 11.7811 20.0207C11.7811 19.1103 11.9128 18.2053 12.1725 17.331C12.2882 16.9418 12.0663 16.5325 11.677 16.4168Z" fill="url(#paint17_linear)"/>
<path d="M15.2117 10.6465C14.3734 11.2875 13.6207 12.0111 12.9748 12.7973C12.717 13.111 12.7624 13.5745 13.0761 13.8323C13.213 13.9446 13.3783 13.9995 13.5426 13.9995C13.7549 13.9995 13.9656 13.9079 14.1111 13.731C14.6854 13.032 15.3563 12.3874 16.105 11.8148C16.4276 11.5681 16.4892 11.1066 16.2425 10.7841C15.9958 10.4615 15.5342 10.3999 15.2117 10.6465Z" fill="url(#paint18_linear)"/>
<path d="M22.2464 7.67285C21.2268 7.83814 20.2256 8.09746 19.2706 8.44354C18.8887 8.58187 18.6915 9.00354 18.8299 9.3853C18.9382 9.68442 19.2204 9.8702 19.5212 9.8702C19.6044 9.8702 19.689 9.85589 19.7717 9.82598C20.6406 9.51108 21.5523 9.2751 22.4818 9.12442C22.8826 9.05942 23.1549 8.68177 23.0899 8.28089C23.025 7.88011 22.6473 7.60814 22.2464 7.67285Z" fill="url(#paint19_linear)"/>
<path d="M34.0307 10.1049C33.693 9.87956 33.2363 9.97064 33.011 10.3084C32.7855 10.6461 32.8767 11.1028 33.2144 11.3281C33.9988 11.8516 34.7134 12.4505 35.3385 13.1083C35.4831 13.2604 35.6772 13.3371 35.8717 13.3371C36.0535 13.3371 36.2358 13.2699 36.378 13.1349C36.6725 12.8551 36.6843 12.3898 36.4046 12.0953C35.7045 11.3586 34.9058 10.6889 34.0307 10.1049Z" fill="url(#paint20_linear)"/>
<path d="M39.6487 19.0743C39.558 18.0325 39.3161 17.0043 38.9299 16.0185C38.7817 15.6404 38.355 15.4541 37.977 15.6021C37.599 15.7503 37.4125 16.1769 37.5606 16.555C37.8955 17.4097 38.1051 18.3003 38.1836 19.2019C38.2169 19.5847 38.538 19.8735 38.9152 19.8735C38.9366 19.8735 38.9582 19.8726 38.9798 19.8707C39.3844 19.8353 39.6839 19.479 39.6487 19.0743Z" fill="url(#paint21_linear)"/>
<path d="M29.8503 8.15327C28.8774 7.86248 27.8641 7.65954 26.8383 7.55003C26.4337 7.50739 26.0722 7.79935 26.0291 8.20317C25.9861 8.60689 26.2784 8.96915 26.6822 9.01238C27.6184 9.11229 28.5426 9.29729 29.4292 9.56219C29.4995 9.58327 29.5703 9.59317 29.64 9.59317C29.9566 9.59317 30.2489 9.38699 30.3442 9.06827C30.4605 8.67915 30.2393 8.26954 29.8503 8.15327Z" fill="url(#paint22_linear)"/>
<path d="M34.6519 10.5432C35.2666 11.3805 35.7832 12.2942 36.1862 13.2667C36.2548 13.2344 36.3195 13.1903 36.3774 13.1354C36.6725 12.855 36.6842 12.3903 36.4048 12.0952C35.8734 11.5373 35.2862 11.0167 34.6519 10.5432Z" fill="url(#paint23_linear)"/>
<path d="M39.6482 19.0743C39.5575 18.0325 39.3156 17.0043 38.9295 16.0185C38.7812 15.6404 38.3545 15.4541 37.9765 15.6021C37.5985 15.7503 37.412 16.1769 37.5601 16.555C37.895 17.4097 38.1046 18.3003 38.1831 19.2019C38.2164 19.5847 38.5375 19.8735 38.9147 19.8735C38.9361 19.8735 38.9577 19.8726 38.9793 19.8707C39.384 19.8353 39.6834 19.479 39.6482 19.0743Z" fill="url(#paint24_linear)"/>
</g>
<defs>
<linearGradient id="paint0_linear" x1="28.3335" y1="20.0208" x2="49.915" y2="20.0208" gradientUnits="userSpaceOnUse">
<stop stop-color="#FFE177"/>
<stop offset="0.5725" stop-color="#FEB137"/>
<stop offset="1" stop-color="#FE646F"/>
</linearGradient>
<linearGradient id="paint1_linear" x1="20.3923" y1="20.0208" x2="47.4555" y2="20.0208" gradientUnits="userSpaceOnUse">
<stop stop-color="#FFE177"/>
<stop offset="0.5725" stop-color="#FEB137"/>
<stop offset="1" stop-color="#FE646F"/>
</linearGradient>
<linearGradient id="paint2_linear" x1="4.4119" y1="20.0208" x2="17.9768" y2="20.0208" gradientUnits="userSpaceOnUse">
<stop stop-color="#FFE177"/>
<stop offset="0.5725" stop-color="#FEB137"/>
<stop offset="1" stop-color="#FE646F"/>
</linearGradient>
<linearGradient id="paint3_linear" x1="-9.31359" y1="20.0208" x2="21.3001" y2="20.0208" gradientUnits="userSpaceOnUse">
<stop stop-color="#FFE177"/>
<stop offset="0.5725" stop-color="#FEB137"/>
<stop offset="1" stop-color="#FE646F"/>
</linearGradient>
<linearGradient id="paint4_linear" x1="20.8832" y1="5.70675" x2="29.1165" y2="5.70675" gradientUnits="userSpaceOnUse">
<stop stop-color="#FDB4BA"/>
<stop offset="0.5725" stop-color="#BD80E1"/>
<stop offset="1" stop-color="#9857BD"/>
</linearGradient>
<linearGradient id="paint5_linear" x1="5.73714" y1="26.9569" x2="46.0225" y2="26.9569" gradientUnits="userSpaceOnUse">
<stop stop-color="#FFE177"/>
<stop offset="0.5725" stop-color="#FEB137"/>
<stop offset="1" stop-color="#FE646F"/>
</linearGradient>
<linearGradient id="paint6_linear" x1="6.52668" y1="26.957" x2="41.2919" y2="26.957" gradientUnits="userSpaceOnUse">
<stop stop-color="#FFE177"/>
<stop offset="0.5725" stop-color="#FEB137"/>
<stop offset="1" stop-color="#FE646F"/>
</linearGradient>
<linearGradient id="paint7_linear" x1="-0.145" y1="40.1175" x2="17.5463" y2="40.1175" gradientUnits="userSpaceOnUse">
<stop stop-color="#FDB4BA"/>
<stop offset="0.5725" stop-color="#BD80E1"/>
<stop offset="1" stop-color="#9857BD"/>
</linearGradient>
<linearGradient id="paint8_linear" x1="-2.94114" y1="40.1176" x2="13.1615" y2="40.1176" gradientUnits="userSpaceOnUse">
<stop stop-color="#FDB4BA"/>
<stop offset="0.5725" stop-color="#BD80E1"/>
<stop offset="1" stop-color="#9857BD"/>
</linearGradient>
<linearGradient id="paint9_linear" x1="37.1568" y1="40.1175" x2="51.0081" y2="40.1175" gradientUnits="userSpaceOnUse">
<stop stop-color="#FDB4BA"/>
<stop offset="0.5725" stop-color="#BD80E1"/>
<stop offset="1" stop-color="#9857BD"/>
</linearGradient>
<linearGradient id="paint10_linear" x1="31.7647" y1="40.1176" x2="50.3" y2="40.1176" gradientUnits="userSpaceOnUse">
<stop stop-color="#FDB4BA"/>
<stop offset="0.5725" stop-color="#BD80E1"/>
<stop offset="1" stop-color="#9857BD"/>
</linearGradient>
<linearGradient id="paint11_linear" x1="4.17415" y1="40.0417" x2="49.5921" y2="40.0417" gradientUnits="userSpaceOnUse">
<stop stop-color="#FDB4BA"/>
<stop offset="0.5725" stop-color="#BD80E1"/>
<stop offset="1" stop-color="#9857BD"/>
</linearGradient>
<linearGradient id="paint12_linear" x1="11.2326" y1="40.0417" x2="40.2468" y2="40.0417" gradientUnits="userSpaceOnUse">
<stop stop-color="#FDB4BA"/>
<stop offset="0.5725" stop-color="#BD80E1"/>
<stop offset="1" stop-color="#9857BD"/>
</linearGradient>
<linearGradient id="paint13_linear" x1="13.4312" y1="36.6261" x2="36.5684" y2="36.6261" gradientUnits="userSpaceOnUse">
<stop stop-color="#F9F3F1"/>
<stop offset="0.5725" stop-color="#EFE2DD"/>
<stop offset="1" stop-color="#CDBFBA"/>
</linearGradient>
<linearGradient id="paint14_linear" x1="17.6748" y1="22.612" x2="32.3254" y2="22.612" gradientUnits="userSpaceOnUse">
<stop stop-color="#537983"/>
<stop offset="1" stop-color="#3E5959"/>
</linearGradient>
<linearGradient id="paint15_linear" x1="11.8972" y1="39.564" x2="17.7615" y2="39.564" gradientUnits="userSpaceOnUse">
<stop stop-color="#FFE177"/>
<stop offset="0.5725" stop-color="#FEB137"/>
<stop offset="1" stop-color="#FE646F"/>
</linearGradient>
<linearGradient id="paint16_linear" x1="8.97572" y1="39.4463" x2="18.1141" y2="39.4463" gradientUnits="userSpaceOnUse">
<stop stop-color="#FFE177"/>
<stop offset="0.5725" stop-color="#FEB137"/>
<stop offset="1" stop-color="#FE646F"/>
</linearGradient>
<linearGradient id="paint17_linear" x1="9.86937" y1="18.571" x2="37.9788" y2="18.571" gradientUnits="userSpaceOnUse">
<stop stop-color="#537983"/>
<stop offset="1" stop-color="#3E5959"/>
</linearGradient>
<linearGradient id="paint18_linear" x1="9.86915" y1="12.2474" x2="37.9786" y2="12.2474" gradientUnits="userSpaceOnUse">
<stop stop-color="#537983"/>
<stop offset="1" stop-color="#3E5959"/>
</linearGradient>
<linearGradient id="paint19_linear" x1="9.86939" y1="8.76677" x2="37.9788" y2="8.76677" gradientUnits="userSpaceOnUse">
<stop stop-color="#537983"/>
<stop offset="1" stop-color="#3E5959"/>
</linearGradient>
<linearGradient id="paint20_linear" x1="9.86948" y1="11.6593" x2="37.9788" y2="11.6593" gradientUnits="userSpaceOnUse">
<stop stop-color="#537983"/>
<stop offset="1" stop-color="#3E5959"/>
</linearGradient>
<linearGradient id="paint21_linear" x1="9.86943" y1="17.7123" x2="37.9789" y2="17.7123" gradientUnits="userSpaceOnUse">
<stop stop-color="#537983"/>
<stop offset="1" stop-color="#3E5959"/>
</linearGradient>
<linearGradient id="paint22_linear" x1="9.86933" y1="8.56954" x2="37.9787" y2="8.56954" gradientUnits="userSpaceOnUse">
<stop stop-color="#537983"/>
<stop offset="1" stop-color="#3E5959"/>
</linearGradient>
<linearGradient id="paint23_linear" x1="24.2772" y1="11.905" x2="35.2676" y2="11.905" gradientUnits="userSpaceOnUse">
<stop stop-color="#537983"/>
<stop offset="1" stop-color="#384949"/>
</linearGradient>
<linearGradient id="paint24_linear" x1="26.1435" y1="17.7123" x2="38.184" y2="17.7123" gradientUnits="userSpaceOnUse">
<stop stop-color="#537983"/>
<stop offset="1" stop-color="#384949"/>
</linearGradient>
<clipPath id="clip0">
<rect width="50" height="50" fill="white"/>
</clipPath>
</defs>
</svg>

<svg width="50" height="50" fill="none" xmlns="http://www.w3.org/2000/svg"><g clip-path="url(#clip0)"><path d="M43.985 40.042H32.21V3.788A3.788 3.788 0 0135.998 0h4.198a3.788 3.788 0 013.788 3.788v36.254z" fill="url(#paint0_linear)"/><path d="M40.197 0h-3.924a3.788 3.788 0 013.788 3.788v36.254h3.924V3.788A3.788 3.788 0 0040.197 0z" fill="url(#paint1_linear)"/><path d="M17.79 40.042H6.016V3.788A3.788 3.788 0 019.804 0h4.198a3.788 3.788 0 013.788 3.788v36.254z" fill="url(#paint2_linear)"/><path d="M14.002 0H10.08a3.788 3.788 0 013.788 3.788V6.29c-4.62 2.001-7.851 6.6-7.851 11.955v21.797H17.79V3.788A3.788 3.788 0 0014.002 0z" fill="url(#paint3_linear)"/><path d="M25 9.823a4.121 4.121 0 01-4.117-4.116A4.121 4.121 0 0125 1.59a4.121 4.121 0 014.116 4.117A4.121 4.121 0 0125 9.823zm0-5.782c-.919 0-1.666.747-1.666 1.666 0 .918.747 1.665 1.666 1.665.918 0 1.666-.747 1.666-1.665 0-.919-.748-1.666-1.666-1.666z" fill="url(#paint4_linear)"/><path d="M41.094 48.693H8.905V18.245c0-7.193 5.832-13.025 13.025-13.025h6.14c7.193 0 13.024 5.832 13.024 13.025v30.448z" fill="url(#paint5_linear)"/><path d="M28.07 5.22h-3.924c7.194 0 13.025 5.832 13.025 13.025v30.448h3.923V18.245c0-7.193-5.83-13.025-13.024-13.025z" fill="url(#paint6_linear)"/><path d="M12.745 47.442H2.388A2.388 2.388 0 010 45.053V37.58a4.787 4.787 0 014.787-4.787h7.958v14.649z" fill="url(#paint7_linear)"/><path d="M12.745 32.793h-3.75c-2.013 0-3.855 1.177-4.654 3.024a9.468 9.468 0 00-.778 3.769v6.45c0 .495.092.969.258 1.406h8.924V32.793z" fill="url(#paint8_linear)"/><path d="M37.255 47.442H47.61c1.32 0 2.389-1.07 2.389-2.389V37.58a4.787 4.787 0 00-4.787-4.787h-7.958v14.649z" fill="url(#paint9_linear)"/><path d="M45.213 32.793H42.76a4.787 4.787 0 014.787 4.787v7.474c0 1.319-1.07 2.388-2.389 2.388h2.453c1.319 0 2.388-1.07 2.388-2.388V37.58a4.787 4.787 0 00-4.787-4.787z" fill="url(#paint10_linear)"/><path d="M40.021 50H9.98a3.963 3.963 0 01-3.963-3.963v-6.451a9.502 9.502 0 019.502-9.503h18.964a9.502 9.502 0 019.502 9.503v6.45A3.963 3.963 0 0140.021 50z" fill="url(#paint11_linear)"/><path d="M34.482 30.083H30.56a9.502 9.502 0 019.502 9.503v6.45A3.963 3.963 0 0136.098 50h3.923a3.963 3.963 0 003.964-3.963v-6.451a9.503 9.503 0 00-9.503-9.503z" fill="url(#paint12_linear)"/><path d="M35.343 37.852H14.657a1.225 1.225 0 110-2.451h20.686a1.225 1.225 0 110 2.45z" fill="url(#paint13_linear)"/><path d="M31.1 23.837H18.9a1.225 1.225 0 110-2.45h12.2a1.225 1.225 0 110 2.45z" fill="url(#paint14_linear)"/><path d="M13.005 41.555a2.428 2.428 0 002.015.697 2.439 2.439 0 001.43-4.141l-.919-.919a1.136 1.136 0 00-1.607 0l-.919.919c-.95.95-.95 2.495 0 3.444z" fill="url(#paint15_linear)"/><path d="M16.212 41.765a2.4 2.4 0 01-.437.268 2.76 2.76 0 00-2.958-3.708c.058-.074.12-.146.188-.214l.919-.919a1.137 1.137 0 011.607 0l.918.919a2.438 2.438 0 01-.237 3.654z" fill="url(#paint16_linear)"/><path d="M11.677 16.417a.735.735 0 00-.914.495c-.3 1.01-.453 2.056-.453 3.109a.735.735 0 101.471 0c0-.91.132-1.816.391-2.69a.735.735 0 00-.495-.914z" fill="url(#paint17_linear)"/><path d="M15.212 10.646a13.53 13.53 0 00-2.237 2.151.735.735 0 001.136.934 12.064 12.064 0 011.994-1.916.735.735 0 10-.893-1.168z" fill="url(#paint18_linear)"/><path d="M22.246 7.673c-1.02.165-2.02.424-2.975.77a.735.735 0 10.5 1.383c.87-.315 1.781-.55 2.71-.702a.735.735 0 00-.235-1.451z" fill="url(#paint19_linear)"/><path d="M34.03 10.105a.735.735 0 00-.816 1.223 12.511 12.511 0 012.125 1.78.733.733 0 001.039.027.735.735 0 00.027-1.04 13.984 13.984 0 00-2.374-1.99z" fill="url(#paint20_linear)"/><path d="M39.649 19.074a10.989 10.989 0 00-.72-3.056.736.736 0 00-1.368.537c.334.855.544 1.745.623 2.647a.735.735 0 101.465-.128z" fill="url(#paint21_linear)"/><path d="M29.85 8.153a16.753 16.753 0 00-3.012-.603.735.735 0 10-.156 1.462c.936.1 1.86.285 2.747.55a.732.732 0 00.915-.494.735.735 0 00-.494-.915z" fill="url(#paint22_linear)"/><path d="M34.652 10.543a13.034 13.034 0 011.534 2.724.736.736 0 00.219-1.171 13.929 13.929 0 00-1.753-1.553z" fill="url(#paint23_linear)"/><path d="M39.648 19.074a10.992 10.992 0 00-.719-3.056.736.736 0 00-1.369.537c.335.855.545 1.745.623 2.647a.735.735 0 101.465-.128z" fill="url(#paint24_linear)"/></g><defs><linearGradient id="paint0_linear" x1="28.334" y1="20.021" x2="49.915" y2="20.021" gradientUnits="userSpaceOnUse"><stop stop-color="#FFE177"/><stop offset=".573" stop-color="#FEB137"/><stop offset="1" stop-color="#FE646F"/></linearGradient><linearGradient id="paint1_linear" x1="20.392" y1="20.021" x2="47.456" y2="20.021" gradientUnits="userSpaceOnUse"><stop stop-color="#FFE177"/><stop offset=".573" stop-color="#FEB137"/><stop offset="1" stop-color="#FE646F"/></linearGradient><linearGradient id="paint2_linear" x1="4.412" y1="20.021" x2="17.977" y2="20.021" gradientUnits="userSpaceOnUse"><stop stop-color="#FFE177"/><stop offset=".573" stop-color="#FEB137"/><stop offset="1" stop-color="#FE646F"/></linearGradient><linearGradient id="paint3_linear" x1="-9.314" y1="20.021" x2="21.3" y2="20.021" gradientUnits="userSpaceOnUse"><stop stop-color="#FFE177"/><stop offset=".573" stop-color="#FEB137"/><stop offset="1" stop-color="#FE646F"/></linearGradient><linearGradient id="paint4_linear" x1="20.883" y1="5.707" x2="29.116" y2="5.707" gradientUnits="userSpaceOnUse"><stop stop-color="#FDB4BA"/><stop offset=".573" stop-color="#BD80E1"/><stop offset="1" stop-color="#9857BD"/></linearGradient><linearGradient id="paint5_linear" x1="5.737" y1="26.957" x2="46.023" y2="26.957" gradientUnits="userSpaceOnUse"><stop stop-color="#FFE177"/><stop offset=".573" stop-color="#FEB137"/><stop offset="1" stop-color="#FE646F"/></linearGradient><linearGradient id="paint6_linear" x1="6.527" y1="26.957" x2="41.292" y2="26.957" gradientUnits="userSpaceOnUse"><stop stop-color="#FFE177"/><stop offset=".573" stop-color="#FEB137"/><stop offset="1" stop-color="#FE646F"/></linearGradient><linearGradient id="paint7_linear" x1="-.145" y1="40.117" x2="17.546" y2="40.117" gradientUnits="userSpaceOnUse"><stop stop-color="#FDB4BA"/><stop offset=".573" stop-color="#BD80E1"/><stop offset="1" stop-color="#9857BD"/></linearGradient><linearGradient id="paint8_linear" x1="-2.941" y1="40.118" x2="13.162" y2="40.118" gradientUnits="userSpaceOnUse"><stop stop-color="#FDB4BA"/><stop offset=".573" stop-color="#BD80E1"/><stop offset="1" stop-color="#9857BD"/></linearGradient><linearGradient id="paint9_linear" x1="37.157" y1="40.117" x2="51.008" y2="40.117" gradientUnits="userSpaceOnUse"><stop stop-color="#FDB4BA"/><stop offset=".573" stop-color="#BD80E1"/><stop offset="1" stop-color="#9857BD"/></linearGradient><linearGradient id="paint10_linear" x1="31.765" y1="40.118" x2="50.3" y2="40.118" gradientUnits="userSpaceOnUse"><stop stop-color="#FDB4BA"/><stop offset=".573" stop-color="#BD80E1"/><stop offset="1" stop-color="#9857BD"/></linearGradient><linearGradient id="paint11_linear" x1="4.174" y1="40.042" x2="49.592" y2="40.042" gradientUnits="userSpaceOnUse"><stop stop-color="#FDB4BA"/><stop offset=".573" stop-color="#BD80E1"/><stop offset="1" stop-color="#9857BD"/></linearGradient><linearGradient id="paint12_linear" x1="11.233" y1="40.042" x2="40.247" y2="40.042" gradientUnits="userSpaceOnUse"><stop stop-color="#FDB4BA"/><stop offset=".573" stop-color="#BD80E1"/><stop offset="1" stop-color="#9857BD"/></linearGradient><linearGradient id="paint13_linear" x1="13.431" y1="36.626" x2="36.568" y2="36.626" gradientUnits="userSpaceOnUse"><stop stop-color="#F9F3F1"/><stop offset=".573" stop-color="#EFE2DD"/><stop offset="1" stop-color="#CDBFBA"/></linearGradient><linearGradient id="paint14_linear" x1="17.675" y1="22.612" x2="32.325" y2="22.612" gradientUnits="userSpaceOnUse"><stop stop-color="#537983"/><stop offset="1" stop-color="#3E5959"/></linearGradient><linearGradient id="paint15_linear" x1="11.897" y1="39.564" x2="17.762" y2="39.564" gradientUnits="userSpaceOnUse"><stop stop-color="#FFE177"/><stop offset=".573" stop-color="#FEB137"/><stop offset="1" stop-color="#FE646F"/></linearGradient><linearGradient id="paint16_linear" x1="8.976" y1="39.446" x2="18.114" y2="39.446" gradientUnits="userSpaceOnUse"><stop stop-color="#FFE177"/><stop offset=".573" stop-color="#FEB137"/><stop offset="1" stop-color="#FE646F"/></linearGradient><linearGradient id="paint17_linear" x1="9.869" y1="18.571" x2="37.979" y2="18.571" gradientUnits="userSpaceOnUse"><stop stop-color="#537983"/><stop offset="1" stop-color="#3E5959"/></linearGradient><linearGradient id="paint18_linear" x1="9.869" y1="12.247" x2="37.979" y2="12.247" gradientUnits="userSpaceOnUse"><stop stop-color="#537983"/><stop offset="1" stop-color="#3E5959"/></linearGradient><linearGradient id="paint19_linear" x1="9.869" y1="8.767" x2="37.979" y2="8.767" gradientUnits="userSpaceOnUse"><stop stop-color="#537983"/><stop offset="1" stop-color="#3E5959"/></linearGradient><linearGradient id="paint20_linear" x1="9.869" y1="11.659" x2="37.979" y2="11.659" gradientUnits="userSpaceOnUse"><stop stop-color="#537983"/><stop offset="1" stop-color="#3E5959"/></linearGradient><linearGradient id="paint21_linear" x1="9.869" y1="17.712" x2="37.979" y2="17.712" gradientUnits="userSpaceOnUse"><stop stop-color="#537983"/><stop offset="1" stop-color="#3E5959"/></linearGradient><linearGradient id="paint22_linear" x1="9.869" y1="8.57" x2="37.979" y2="8.57" gradientUnits="userSpaceOnUse"><stop stop-color="#537983"/><stop offset="1" stop-color="#3E5959"/></linearGradient><linearGradient id="paint23_linear" x1="24.277" y1="11.905" x2="35.268" y2="11.905" gradientUnits="userSpaceOnUse"><stop stop-color="#537983"/><stop offset="1" stop-color="#384949"/></linearGradient><linearGradient id="paint24_linear" x1="26.143" y1="17.712" x2="38.184" y2="17.712" gradientUnits="userSpaceOnUse"><stop stop-color="#537983"/><stop offset="1" stop-color="#384949"/></linearGradient><clipPath id="clip0"><path fill="#fff" d="M0 0h50v50H0z"/></clipPath></defs></svg>
